app/images/tokensearch.svg

<?xml version="1.0" encoding="UTF-8"?>
<svg width="65px" height="58px" viewBox="0 0 65 58" version="1.1" xmlns="http://www.w3.org/2000/svg" xmlns:xlink="http://www.w3.org/1999/xlink">
    <!-- Generator: sketchtool 50.2 (55047) - http://www.bohemiancoding.com/sketch -->
    <title>7FDB75AD-BD4D-497C-B391-69EEB31A0561</title>
    <desc>Created with sketchtool.</desc>
    <defs></defs>
    <g id="Add-Tokens" stroke="none" stroke-width="1" fill="none" fill-rule="evenodd">
        <g id="Add-tokens" transform="translate(-267.000000, -284.000000)" fill="#B8BAC1">
            <g id="tokensearch" transform="translate(267.000000, 284.000000)">
                <path d="M28.5322581,2.80645161 C42.4391613,2.80645161 54.1925806,9.22854839 54.2552581,16.8433871 C54.1925806,24.4591613 42.4391613,30.8821935 28.5322581,30.8821935 C14.6253548,30.8821935 2.87193548,24.4600968 2.80925806,16.8443226 C2.87193548,9.22854839 14.6253548,2.80645161 28.5322581,2.80645161 M28.5322581,36.7289677 C15.7432581,36.7289677 4.78125806,31.2975484 3.05154839,24.5012581 C7.70932258,29.9981613 17.2559355,33.6886452 28.5322581,33.6886452 C39.8085806,33.6886452 49.3551935,29.9981613 54.0129677,24.5012581 C52.2832581,31.2975484 41.3212581,36.7289677 28.5322581,36.7289677 M28.5322581,54.2692903 C15.7432581,54.2692903 4.78125806,48.837871 3.05154839,42.0415806 C7.70932258,47.5384839 17.2559355,51.2289677 28.5322581,51.2289677 C33.2237097,51.2289677 37.6083226,50.5844194 41.471871,49.4403226 C42.1379355,49.243871 42.5270968,48.5675161 42.4110968,47.8818065 C42.4045484,47.8453226 42.398,47.8079032 42.3923871,47.7704839 C42.2642258,46.9603548 41.439129,46.458 40.6533226,46.6946774 C37.0180323,47.792 32.8822581,48.4225161 28.5322581,48.4225161 C15.7432581,48.4225161 4.78125806,42.9910968 3.05154839,36.1948065 C7.70932258,41.6917097 17.2559355,45.3821935 28.5322581,45.3821935 C33.3649677,45.3821935 37.8730645,44.6983548 41.8217419,43.4906452 C42.2763871,43.3503226 42.6066129,42.976129 42.7422581,42.5196129 L42.7534839,42.4812581 C43.0752903,41.4082581 42.0733871,40.4063548 41.004129,40.7403226 C37.2846452,41.9040645 33.0225806,42.5757419 28.5322581,42.5757419 C15.7432581,42.5757419 4.78125806,37.1443226 3.05154839,30.3480323 C7.70932258,35.8449355 17.2559355,39.5354194 28.5322581,39.5354194 C39.8085806,39.5354194 49.3551935,35.8449355 54.0129677,30.3480323 L54.0129677,33.5492581 C54.0129677,34.3846452 54.6902581,35.0619355 55.5256452,35.0619355 C56.3610323,35.0619355 57.0383226,34.3902581 57.0392581,33.5558065 C57.0467419,26.4900968 57.0645161,16.9257097 57.0645161,16.905129 C57.0645161,16.8845484 57.0617097,16.8649032 57.0617097,16.8443226 C57.0617097,16.8237419 57.0645161,16.8031613 57.0645161,16.7825806 L57.0598387,16.7825806 C56.9513226,7.36225806 44.4616774,0 28.5322581,0 C12.6028387,0 0.113193548,7.36225806 0.00467741935,16.7825806 L0,16.7825806 C0,16.8031613 0.00280645161,16.8237419 0.00280645161,16.8443226 C0.00280645161,16.8649032 0,16.8845484 0,16.905129 C0,16.9322581 0.00467741935,19.3420645 0.0102903226,22.6293548 L0,22.6293548 C0,22.7154194 0.00841935484,22.7996129 0.0102903226,22.8838065 C0.0140322581,24.5957419 0.0177741935,26.5247097 0.0196451613,28.476129 L0,28.476129 C0,28.650129 0.0130967742,28.8222581 0.0205806452,28.9953226 C0.0243225806,30.828871 0.0280645161,32.6586774 0.0308709677,34.3229032 L0,34.3229032 C0,34.5857742 0.0140322581,34.8467742 0.0318064516,35.1059032 C0.036483871,37.3108387 0.0392903226,39.1406452 0.0411612903,40.1696774 L0,40.1696774 C0,40.4905484 0.0177741935,40.8086129 0.0458387097,41.123871 L0.0495806452,41.2033871 C0.0645483871,41.3699032 0.0935483871,41.5345484 0.116935484,41.700129 C0.130032258,41.7861935 0.137516129,41.8731935 0.152483871,41.9583226 C0.183354839,42.1416774 0.225451613,42.3240968 0.266612903,42.5055806 C0.29,42.6103548 0.308709677,42.7160645 0.334903226,42.8199032 C0.358290323,42.9078387 0.387290323,42.9939032 0.411612903,43.0818387 C2.00006452,48.7134516 8.12841935,53.3160323 16.5777097,55.5705484 C16.6010968,55.5770968 16.6254194,55.5836452 16.6488065,55.5892581 C16.9350645,55.6650323 17.2213226,55.739871 17.5122581,55.8109677 C20.9099355,56.6538387 24.6322258,57.1215806 28.5322581,57.1215806 C32.4322903,57.1215806 36.1545806,56.6538387 39.5522581,55.8109677 C39.8431935,55.739871 40.1294516,55.6650323 40.4157097,55.5892581 C40.4390968,55.5836452 40.4634194,55.5770968 40.4868065,55.5705484 C41.5766452,55.2796129 42.6253226,54.9475161 43.6319032,54.579871 C44.4682258,54.2739677 44.7675806,53.2627097 44.2652258,52.5274194 C44.2437097,52.4956129 44.2212581,52.462871 44.1997419,52.430129 C43.8423871,51.8950323 43.1688387,51.6873548 42.5645161,51.9090645 C38.4998387,53.3955484 33.6624516,54.2692903 28.5322581,54.2692903" id="Fill-1"></path>
                <path d="M64.3227484,54.3991355 L60.4535871,50.5299742 C61.4526839,49.1566839 61.9522323,47.5345548 61.9522323,45.7880065 C62.1009742,40.5661355 56.8996839,36.4144581 51.4654581,38.2367806 C48.6131677,39.1928452 46.4821355,41.7401677 46.0611677,44.7187484 C45.3530065,49.7460387 49.205329,54.0249419 54.0894903,54.0249419 C55.5872,54.0249419 57.0849097,53.5244581 58.2074903,52.7770065 L62.0766516,56.6452323 C62.6968774,57.2654581 63.7025226,57.2654581 64.3227484,56.6452323 C64.9429742,56.0250065 64.9429742,55.0193613 64.3227484,54.3991355 M48.3484258,45.9124258 C48.3484258,42.7925871 50.9696516,40.1713613 54.0894903,40.1713613 C57.209329,40.1713613 59.7052,42.6681677 59.7052,45.9124258 C59.7052,49.0332 57.209329,51.529071 54.0894903,51.529071 C50.8452323,51.529071 48.3484258,49.0332 48.3484258,45.9124258" id="Fill-3"></path>
            </g>
        </g>
    </g>
</svg>

<svg height="58" width="65" xmlns="http://www.w3.org/2000/svg">
    <g fill="#b8bac1" fill-rule="evenodd">
        <path d="M28.532 2.806c13.907 0 25.66 6.423 25.723 14.037-.062 7.616-11.816 14.04-25.723 14.04-13.907 0-25.66-6.423-25.723-14.039C2.872 9.23 14.625 2.806 28.532 2.806m0 33.923c-12.789 0-23.75-5.431-25.48-12.228 4.657 5.497 14.204 9.188 25.48 9.188 11.277 0 20.823-3.69 25.481-9.188-1.73 6.797-12.692 12.228-25.48 12.228m0 17.54c-12.79 0-23.752-5.431-25.481-12.227 4.657 5.496 14.204 9.187 25.48 9.187 4.692 0 9.076-.645 12.94-1.789.666-.196 1.055-.872.94-1.558a3.942 3.942 0 01-.02-.112c-.128-.81-.953-1.312-1.739-1.075-3.635 1.097-7.77 1.728-12.12 1.728-12.79 0-23.752-5.432-25.481-12.228 4.657 5.497 14.204 9.187 25.48 9.187 4.833 0 9.341-.684 13.29-1.891.454-.14.785-.515.92-.971l.011-.039c.322-1.073-.68-2.075-1.749-1.74-3.72 1.163-7.981 1.835-12.472 1.835-12.789 0-23.75-5.432-25.48-12.228 4.657 5.497 14.204 9.187 25.48 9.187 11.277 0 20.823-3.69 25.481-9.187v3.201c0 .836.677 1.513 1.513 1.513s1.512-.672 1.513-1.506c.008-7.066.026-16.63.026-16.65 0-.021-.003-.041-.003-.062 0-.02.003-.04.003-.061h-.005C56.95 7.363 44.462 0 28.532 0 12.602 0 .113 7.362.005 16.783H0c0 .02.003.04.003.061 0 .02-.003.04-.003.061l.01 5.724H0c0 .086.008.17.01.255.004 1.712.008 3.64.01 5.592H0c0 .174.013.346.02.52.004 1.833.008 3.663.01 5.327H0c0 .263.014.524.032.783l.01 5.064H0c0 .32.018.639.046.954l.004.08c.015.166.044.33.067.496.013.086.02.173.035.258.031.184.073.366.115.548.023.104.042.21.068.314.023.088.052.174.077.262C2 48.713 8.128 53.316 16.578 55.57l.07.018c.287.076.573.15.864.222 3.398.843 7.12 1.31 11.02 1.31 3.9 0 7.623-.467 11.02-1.31a46.525 46.525 0 00.935-.24c1.09-.291 2.138-.623 3.145-.991.836-.306 1.136-1.317.633-2.053l-.065-.097a1.383 1.383 0 00-1.635-.52c-4.065 1.486-8.903 2.36-14.033 2.36"/>
        <path d="M64.323 54.4l-3.87-3.87c1-1.373 1.5-2.995 1.5-4.742.148-5.222-5.053-9.374-10.488-7.551-2.852.956-4.983 3.503-5.404 6.482a8.107 8.107 0 008.028 9.306c1.498 0 2.996-.5 4.118-1.248l3.87 3.868a1.588 1.588 0 002.246-2.246m-15.975-8.487c0-3.12 2.622-5.74 5.741-5.74s5.616 2.496 5.616 5.74a5.593 5.593 0 01-5.616 5.617c-3.244 0-5.74-2.496-5.74-5.617"/>
    </g>
</svg>
